src/assets/buildinginpublic/logo-github.svg

<svg fill="none" height="20" viewBox="0 0 20 20" width="20" xmlns="http://www.w3.org/2000/svg"><path d="m18.6584 5.2251c-.8942-1.53214-2.1071-2.74514-3.6391-3.63927-1.5323-.894178-3.205-1.341152-5.01946-1.341152-1.81421 0-3.4875.447111-5.01942 1.341152-1.53214.89408-2.74505 2.10713-3.63927 3.63927-.894085 1.5321-1.34115 3.20516-1.34115 5.0191 0 2.179.635733 4.1385 1.90752 5.8788 1.27165 1.7405 2.91443 2.9448 4.9282 3.6131.23441.0435.40794.0129.52077-.091.11287-.1041.16924-.2344.16924-.3905 0-.026-.00224-.2603-.00657-.7031-.00447-.4427-.00657-.829-.00657-1.1586l-.29949.0518c-.19094.035-.43183.0498-.72265.0456-.29069-.004-.59245-.0345-.90489-.0911-.31258-.0562-.60331-.1864-.87243-.3904-.26897-.204-.45992-.471-.57279-.8006l-.13021-.2996c-.08678-.1995-.22342-.4211-.41008-.664-.18666-.2431-.37542-.4079-.56636-.4947l-.09117-.0653c-.06074-.0434-.11711-.0957-.16924-.1564-.05208-.0607-.09107-.1214-.11711-.1822-.02609-.0609-.00447-.1109.06508-.15.06954-.0392.19523-.0582.37761-.0582l.26031.0389c.17362.0348.38837.1387.64453.3124.25603.1736.4665.3992.63145.6769.19975.356.44041.6272.72265.8139.28203.1866.56637.2798.85277.2798s.53376-.0217.74218-.0649c.20818-.0434.40351-.1087.58588-.1954.07812-.5818.29083-1.0288.63792-1.3412-.49472-.052-.9395-.1303-1.33458-.2344-.39485-.1043-.80287-.2735-1.22381-.5081-.42116-.2343-.77054-.5252-1.04823-.8722-.27773-.3473-.50566-.8031-.68348-1.3672-.1779-.5643-.26688-1.2153-.26688-1.95309 0-1.05051.34295-1.94446 1.02871-2.68235-.32124-.78978-.29091-1.67516.09108-2.65603.25174-.07821.62506-.01952 1.11978.17572.49481.19532.8571.36265 1.08722.50138.23012.13868.41451.25621.55342.35152.80743-.22561 1.64068-.33843 2.49997-.33843.85925 0 1.69275.11282 2.50015.33843l.4948-.31235c.3384-.20841.7379-.39941 1.1977-.57302.4601-.17353.8119-.22132 1.055-.14311.3905.98091.4253 1.86624.104 2.65603.6857.73789 1.0288 1.63206 1.0288 2.68234 0 .73776-.0893 1.39086-.267 1.95946-.1778.5687-.4077 1.0242-.6897 1.3672-.2824.343-.634.6316-1.0549.8659-.4211.2344-.8292.4036-1.2241.5078-.395.1043-.8398.1826-1.3345.2347.4512.3905.6769 1.0068.6769 1.8488v2.7471c0 .156.0542.2863.1629.3904.1085.104.2798.1346.5142.091 2.0141-.6682 3.6568-1.8726 4.9284-3.6131 1.2715-1.7403 1.9075-3.6997 1.9075-5.8787-.0005-1.81378-.4478-3.4867-1.3415-5.0188z" fill="#000"/></svg>

<svg width="20" height="20" viewBox="0 0 20 20" fill="none" xmlns="http://www.w3.org/2000/svg">
<path d="M18.6584 5.2251C17.7642 3.69296 16.5513 2.47996 15.0193 1.58583C13.487 0.691652 11.8143 0.244678 9.99984 0.244678C8.18563 0.244678 6.51234 0.691789 4.98042 1.58583C3.44828 2.47991 2.23537 3.69296 1.34115 5.2251C0.447065 6.7572 0 8.43026 0 10.2442C0 12.4232 0.635733 14.3827 1.90752 16.123C3.17917 17.8635 4.82195 19.0678 6.83572 19.7361C7.07013 19.7796 7.24366 19.749 7.35649 19.6451C7.46936 19.541 7.52573 19.4107 7.52573 19.2546C7.52573 19.2286 7.52349 18.9943 7.51916 18.5515C7.51469 18.1088 7.51259 17.7225 7.51259 17.3929L7.2131 17.4447C7.02216 17.4797 6.78127 17.4945 6.49045 17.4903C6.19976 17.4863 5.898 17.4558 5.58556 17.3992C5.27298 17.343 4.98225 17.2128 4.71313 17.0088C4.44416 16.8048 4.25321 16.5378 4.14034 16.2082L4.01013 15.9086C3.92335 15.7091 3.78671 15.4875 3.60005 15.2446C3.41339 15.0015 3.22463 14.8367 3.03369 14.7499L2.94252 14.6846C2.88178 14.6412 2.82541 14.5889 2.77328 14.5282C2.7212 14.4675 2.68221 14.4068 2.65617 14.346C2.63008 14.2851 2.6517 14.2351 2.72125 14.196C2.79079 14.1568 2.91648 14.1378 3.09886 14.1378L3.35917 14.1767C3.53279 14.2115 3.74754 14.3154 4.0037 14.4891C4.25973 14.6627 4.4702 14.8883 4.63515 15.166C4.8349 15.522 5.07556 15.7932 5.3578 15.9799C5.63983 16.1665 5.92417 16.2597 6.21057 16.2597C6.49697 16.2597 6.74433 16.238 6.95275 16.1948C7.16093 16.1514 7.35626 16.0861 7.53863 15.9994C7.61675 15.4176 7.82946 14.9706 8.17655 14.6582C7.68183 14.6062 7.23705 14.5279 6.84197 14.4238C6.44712 14.3195 6.0391 14.1503 5.61816 13.9157C5.197 13.6814 4.84762 13.3905 4.56993 13.0435C4.2922 12.6962 4.06427 12.2404 3.88645 11.6763C3.70855 11.112 3.61957 10.461 3.61957 9.72321C3.61957 8.6727 3.96252 7.77875 4.64828 7.04086C4.32704 6.25108 4.35737 5.3657 4.73936 4.38483C4.9911 4.30662 5.36442 4.36531 5.85914 4.56055C6.35395 4.75587 6.71624 4.9232 6.94636 5.06193C7.17648 5.20061 7.36087 5.31814 7.49978 5.41345C8.30721 5.18784 9.14046 5.07502 9.99975 5.07502C10.859 5.07502 11.6925 5.18784 12.4999 5.41345L12.9947 5.1011C13.3331 4.89269 13.7326 4.70169 14.1924 4.52808C14.6525 4.35455 15.0043 4.30676 15.2474 4.38497C15.6379 5.36588 15.6727 6.25121 15.3514 7.041C16.0371 7.77889 16.3802 8.67306 16.3802 9.72334C16.3802 10.4611 16.2909 11.1142 16.1132 11.6828C15.9354 12.2515 15.7055 12.707 15.4235 13.05C15.1411 13.393 14.7895 13.6816 14.3686 13.9159C13.9475 14.1503 13.5394 14.3195 13.1445 14.4237C12.7495 14.528 12.3047 14.6063 11.81 14.6584C12.2612 15.0489 12.4869 15.6652 12.4869 16.5072V19.2543C12.4869 19.4103 12.5411 19.5406 12.6498 19.6447C12.7583 19.7487 12.9296 19.7793 13.164 19.7357C15.1781 19.0675 16.8208 17.8631 18.0924 16.1226C19.3639 14.3823 19.9999 12.4229 19.9999 10.2439C19.9994 8.43012 19.5521 6.7572 18.6584 5.2251Z" fill="black"/>
</svg>
